X:1
T:Ein feste Burg (3vv-3, CLV)
T:Michael Praetorius
T:Ein feste Burg (3vv-3, CLV)
C:Michael Praetorius
%%score [ 1 2 3 ]
L:1/8
Q:1/4=120
M:4/2
K:F
V:1 treble-8 nm="Tenor 1" snm="T 1"
V:2 treble-8 nm="Tenor 2" snm="T 2"
V:3 bass nm="Bass" snm="B"
V:1
 z4 z2 f2 f2 f2 c4 | z2 f2 f2 f2 e4 z2 g2 | g2 g2 c8 g4 | f12 e4 | d2 d2 c4 z4 f4 | e8 d4 c4 | %6
w: Ein fes- te Burg,|ein fes- te Burg, ein|fes- te Burg ist|un- *|* ser Gott, ein|gu- te Wehr|
 d4 B8 A4 | G8 F4 f4 | f12 f4 | c8 e8 | f8 e8 | d8 d8 | c8 z4 f4- | f4 e4 d8 | c8 d4 B4 | A8 G8 | %16
w: und Waf- *|* fen. Er|hilft uns|frei aus|al- *|* ler|Not, die|_ uns jetzt|hat be- trof-||
 F8 z8 | z4 F4 A8 | c8 d8- | d4 c8 =B4 | c8 F4 c4 | d4 e4 f8 | e4 f8 e4 | d8 c8 | d4 d8 c4 | %25
w: fen.|Der al-|te bö-|* * se|Feind, mit Ernst|ers jetzt meint.|Groß Macht und|viel List,|sein grau- sam|
 dc B4 B2 A8 | z8 f8 | e8 d8 | c8 d4 B4- | B4 A4 G8- | G8 F8- | F16- | F16 |] %33
w: Rüs- * * tung ist.|Auf|Erdn ist|nicht seins- glei-||* chen.|_||
V:2
 z2 c2 c2 c2 A6 c2 | c2 c2 A4 z2 c2 c2 c2 | G4 z4 z2 c2 c2 c2 | F4 A2 B4 A2 G2 G2 | %4
w: Ein fes- te Burg, ein|fes- te Burg, ein fes- te|Burg, ein fes- te|Burg ist un- * * ser|
 F6 c2 c2 c2 F4 | z2 c2 c2 c2 F8 | z2 D2 G2 G2 C8- | C4 E4 F3 E D2 d2 | c8 z2 d2 d2 d2 | %9
w: Gott, ein fes- te Burg,|ein fes- te Burg,|ein fes- te Burg|_ ist un- * * ser|Gott, ein fes- te|
 A6 c2 c2 c2 G3 c | c2 c2 A4 z2 c2 c2 c2 | GA B4 A4 G2 F2 B2 | A4 G4 F2 B4 AG | A4 G4 F2 GA B3 B | %14
w: Burg, ein fes- te Burg, ein|fes- te Burg, ein fes- te|Burg ist un- * ser Gott, ein|gu- te Wehr, ein gu- *|* te Wehr, _ _ _ ein|
 A2 G2 F2 G2 F3 E D4 | C2 c2 c6 c2 G4 | A4 B4 A4 G2 F2 | B4 A3 G F2 c4 A2- | A2 G2 G2 c2 B6 A2- | %19
w: gu- te Wehr und Waf- * *|fen. Er hilft uns frei|aus al- * ler Not,|die uns jetzt hat, die uns|_ jetzt hat be- trof- *|
 A2 GF G4 F8 | z4 z2 c4 B2 A2 G2- | G2 B2 A2 G2 F2 D2 B2 A2 | G4 F4 z2 c2 c2 c2 | G2 F2 B8 A4 | %24
w: * * * * fen.|die uns jetzt hat,|_ die uns jetzt hat be- trof- *|* fen. Ein fes- te|Burg ist un- *|
 G4 G4 F8 | z2 G2 G2 G2 C2 F2 c2 BA | G2 G2 F2 B2 A2 G2 F4 | z2 c2 A2 G2 F2 B2 B2 B2 | %28
w: * ser Gott,|ein fes- te Burg ist un- * *|* ser Gott, ein gu- te Wehr,|ein gu- te Wehr, ein fes- te|
 F8 z2 D2 G2 FE | D2 D2 C2 F2 E2 D2 C4 | d4 B4 A4 G4 | F6 G2 A8- | A16 |] %33
w: Burg ist un- * *|* ser Gott, ein gu- te Wehr|und Waf- * *|fen. _ _|_|
V:3
 F,8 F,8 | F,8 C,8 | E,4 F,8 E,4 | D,4 D,4 C,8 | z4 F,4 E,4 D,4 | C,8 D,2 B,,4 A,,2 | G,,8 F,,8 | %7
w: Ein fes-|te Burg|ist un- *|* ser Gott,|ein gu- te|Wehr und Waf- *|* fen.|
 z16 | F,4 F,2 F,2 B,,8 | z2 F,2 F,2 F,2 C,3 C, C,2 C,2 | F,,3 F, F,2 F,2 C,8 | %11
w: |Er hilft uns frei,|er hilft uns frei, er hilft uns|frei, er hilft uns frei,|
 z2 G,2 G,G, D,4 E,2 F,4- | F,4 E,4 D,4 D,4 | C,8 z2 B,,2 B,,2 B,,2 | %14
w: er hilft uns frei aus al-|* * * ler|Not, er hilft uns|
 F,,2 C,2 F,2 E,2 D,2 D,2 G,,4 | z4 F,8 E,4 | D,8 C,2 D,2 B,,2 A,,2 | G,,4 F,,4 z2 F,2 F,2 F,2 | %18
w: frei aus al- * * ler Not,|die uns|jetzt hat be- trof- *|* fen. Ein fes- te|
 C,3 C, C,2 C,2 G,,4 D,4 | F,4 E,4 D,4 D,4 | C,2 F,2 E,4 D,4 C,4 | z16 | z4 z2 F,2 F,2 F,2 C,4 | %23
w: Burg, ein fes- te Burg ist|un- * * ser|Gott, ein gu- te Wehr,||Ein fes- te Burg,|
 z2 B,,2 B,,2 B,,2 F,,8 | z2 B,,2 B,,8 A,,4 | G,,4 G,,4 F,,3 F, F,2 F,2 | C,4 D,4 F,2 E,2 D,2 D,2 | %27
w: ein fes- te Burg|ist un- *|* ser Gott, ein fes- te|Burg ist un- * * ser|
 C,8 z2 G,,2 B,,4- | B,,4 A,,4 G,,4 G,,4 | F,,8 z4 z2 C,2 | B,,2 A,,2 G,,4 D,4 B,,4- | %31
w: Gott, ist un-|* * * ser|Gott, ein|gu- te Wehr und Waf-|
 B,,4 A,,2 G,,2 F,,8 | F,,16 |] %33
w: |fen.|

